X: 41709
T: Valley Of Knockanure, The
R: waltz
M: 3/4
K: Fdorian
K: Cmin
EF|G4 G2|F3 G F2|E4 C2|F4 EC|B,2 G,3 B,|C4 C2|C6-|C4 G,2|
C2 B,2 C2|E4 F2|G2 F2 G2|B4 G2|F2 F4|E4 F2|G6-|G4 B,2|
C4 C2|E2 E2 F2|G4 G2|B4 G2|F2 G2 F2|E4 F2|G6-|G4 EF|
G4 G2|F4 GF|E4 C2|F4 EC|B,2 G,3 B,|C4 C2|C6-|C4||

